symbols/web/notification_important/materialsymbolsoutlined/notification_important_wght600gradN25fill1_24px.svg

<svg xmlns="http://www.w3.org/2000/svg" height="24" width="24"><path d="M11.025 12.95h1.95V8.175h-1.95ZM12 15.775q.425 0 .725-.3t.3-.7q0-.425-.3-.725t-.725-.3q-.425 0-.725.3t-.3.7q0 .425.3.725t.725.3ZM3.35 19.35v-2.525h2.125V10.35q0-2.225 1.312-3.988Q8.1 4.6 10.225 4.1v-.6q0-.75.513-1.263.512-.512 1.262-.512.725 0 1.25.512.525.513.525 1.263v.6q2.15.5 3.45 2.262 1.3 1.763 1.3 3.988v6.475h2.125v2.525Zm8.675 2.95q-.9 0-1.513-.612Q9.9 21.075 9.9 20.2h4.225q0 .875-.613 1.488-.612.612-1.487.612Z"/></svg>

<svg xmlns="http://www.w3.org/2000/svg" height="24" width="24"><path d="M11.025 12.95H12.975V8.175H11.025ZM12 15.775Q12.425 15.775 12.725 15.475Q13.025 15.175 13.025 14.775Q13.025 14.35 12.725 14.05Q12.425 13.75 12 13.75Q11.575 13.75 11.275 14.05Q10.975 14.35 10.975 14.75Q10.975 15.175 11.275 15.475Q11.575 15.775 12 15.775ZM3.35 19.35V16.825H5.475V10.35Q5.475 8.125 6.787 6.362Q8.1 4.6 10.225 4.1V3.5Q10.225 2.75 10.738 2.237Q11.25 1.725 12 1.725Q12.725 1.725 13.25 2.237Q13.775 2.75 13.775 3.5V4.1Q15.925 4.6 17.225 6.362Q18.525 8.125 18.525 10.35V16.825H20.65V19.35ZM12.025 22.3Q11.125 22.3 10.512 21.688Q9.9 21.075 9.9 20.2H14.125Q14.125 21.075 13.512 21.688Q12.9 22.3 12.025 22.3Z"/></svg>
